X: 12
M: 6/8
L: 1/8
K: Bb
V: 1
|:\
fdB BAB | cde dcB | fdB Ged | cBA TB3 :|\
|:\
fdB BAB | cde dcB | fdB Ged | cBA B3 :|
V: 2 clef=bass middle=d
|:\
|:\
f3 a3 | agf =efg | f3 abg | f2c F3 |

